X: 30
T:Man-Ddarlun
T:A Miniature
M:2/4
L:1/8
Q:220
S:Cadw Twmpath Collection
R:Polka
A:Wales
Z:brian_martin12345@yahoo.com
K:D
(3A/B/c/|"$"dD D/E/F/G/|AA AB|AF F/G/A/F/|GE E(3A/B/c/|
dD D/E/F/G/|AA AB|Ag f/e/d/c/|" Fine"d3:||
c/d/|ee/a/ ff/a/|ee d/c/B/A/|^G/A/B/c/ d/e/f/^g/|ae/c/ Ac/d/|
ee/a/ ff/a/|ee d/c/B/A/|^G/A/B/c/ d/e/f/^g/|aA " D.S."A/B/c/A/||
